src/topics/icons/drip.svg

<svg height="245" preserveAspectRatio="xMidYMid" viewBox="0 0 512 245" width="512" xmlns="http://www.w3.org/2000/svg" xmlns:xlink="http://www.w3.org/1999/xlink"><linearGradient id="a" x1="49.946083%" x2="49.946083%" y1="100.009982%" y2="0%"><stop offset="0" stop-color="#2746f1"/><stop offset="1" stop-color="#61b7f5"/></linearGradient><linearGradient id="b" x1="49.940385%" x2="49.940385%" y1="99.961266%" y2=".048976%"><stop offset="0" stop-color="#275af1"/><stop offset=".1582" stop-color="#336df2"/><stop offset=".5228" stop-color="#4c92f4"/><stop offset=".8162" stop-color="#5ba9f5"/><stop offset="1" stop-color="#61b2f5"/></linearGradient><path d="m0 37h72.8857645c48.0906075.1999609 83.8836165 28.6943956 83.8836165 81.484085 0 52.389768-35.89299 81.084163-83.8836165 81.084163h-72.8857645zm40.19215 34.8931849v92.7818781h31.0939269c26.2948643 0 44.1913691-16.496778 44.1913691-46.190978 0-30.0941221-17.8965048-46.5909001-44.1913691-46.5909001zm148.17106 45.6910761c0-6.498731-1.199765-11.497754-7.698496-11.497754-4.999024 0-10.997852 2.399531-12.197618 3.099394l-1.199765-31.5938291c.999804-1.1997657 14.79711-5.2989651 29.6942-5.2989651 14.79711 0 24.895138 5.498926 29.194298 18.396407 5.998828-11.197813 14.597149-18.396407 30.394064-18.396407 11.697715 0 21.29584 4.2991603 22.195665 5.9988284l-4.999024 36.5928528c-1.199766-1.699668-11.997657-5.498926-23.895333-5.498926-14.79711 0-20.096075 11.997657-21.295841 24.895138v65.287248h-40.19215zm162.368288 47.390744c-.699864.699863-6.698692 3.299355-11.697716 3.299355-6.49873 0-7.698496-5.298965-7.698496-11.497754v-82.1839483h-40.19215v92.0820153c0 25.295059 11.497754 35.393087 31.293888 35.393087 15.097051 0 28.894357-4.29916 29.894161-5.298965zm27.794571 79.584456v-126.9752c0-6.698692-1.199766-11.497754-7.698496-11.497754-4.999024 0-10.997852 2.19957-12.197618 3.299355l-1.199766-31.9937511c.999805-.6998633 14.597149-5.298965 29.694201-5.298965 14.097246 0 24.195274 4.7990627 28.694395 16.9966803 7.898458-9.7980863 20.096075-16.6967389 38.292521-16.6967389 34.193322 0 57.888694 26.9947276 57.888694 64.9873067 0 37.492678-23.695372 64.587386-57.888694 64.587386-15.097051 0-27.294669-5.298965-35.393087-12.897481v55.489162zm40.09217-128.174966v41.891818c5.998828 5.298965 15.097051 8.798282 23.895333 8.798282 17.196641 0 28.494434-11.497755 28.494434-29.694201 0-18.396406-10.997852-30.094122-28.494434-30.094122-9.298184 0-18.796329 4.0992-23.895333 9.098223z" fill="#414042"/><g transform="translate(289)"><path d="m22.4 56.1c13 0 21.7-4.7 21.7-17.9 0-4.9-2.1-11.3-6.8-17.8-4.9-6.9-8-8-14.9-20.4-6.9 12.4-10 13.5-14.9 20.4-4.7 6.5-6.8 12.9-6.8 17.8 0 13.2 8.7 17.9 21.7 17.9zm-14.3-35.4c4.7-6.6 7.7-7.6 14.3-19.5 6.6 11.9 9.6 12.9 14.3 19.5 4.5 6.2 6.5 12.3 6.5 17 0 12.6-8.4 17.2-20.8 17.2s-20.8-4.5-20.8-17.2c0-4.7 2.1-10.8 6.5-17z" fill="url(#a)"/><path d="m22.4 55.4163462c12.6384615 0 21.2-4.5865385 21.2-17.5307693 0-4.7903846-2.0384615-11.0076923-6.625-17.3269231-4.7903846-6.726923-7.8480769-7.7461538-14.575-19.87499995-6.7269231 12.12884615-9.7846154 13.14807695-14.575 19.87499995-4.58653846 6.3192308-6.625 12.5365385-6.625 17.3269231 0 12.9442308 8.56153846 17.5307693 21.2 17.5307693z" fill="url(#b)"/></g></svg>

<?xml version="1.0" encoding="UTF-8" standalone="no"?>
<svg width="512px" height="245px" viewBox="0 0 512 245" version="1.1" xmlns="http://www.w3.org/2000/svg" xmlns:xlink="http://www.w3.org/1999/xlink" preserveAspectRatio="xMidYMid">
    <defs>
        <linearGradient x1="49.9460829%" y1="100.009982%" x2="49.9460829%" y2="-6.33282296e-15%" id="linearGradient-1">
            <stop stop-color="#2746F1" offset="0%"></stop>
            <stop stop-color="#61B7F5" offset="100%"></stop>
        </linearGradient>
        <linearGradient x1="49.9403846%" y1="99.9612663%" x2="49.9403846%" y2="0.0489757914%" id="linearGradient-2">
            <stop stop-color="#275AF1" offset="0%"></stop>
            <stop stop-color="#336DF2" offset="15.82%"></stop>
            <stop stop-color="#4C92F4" offset="52.28%"></stop>
            <stop stop-color="#5BA9F5" offset="81.62%"></stop>
            <stop stop-color="#61B2F5" offset="100%"></stop>
        </linearGradient>
    </defs>
	<g>
		<path d="M0,37 L72.8857645,37 C120.976372,37.1999609 156.769381,65.6943956 156.769381,118.484085 C156.769381,170.873853 120.876391,199.568248 72.8857645,199.568248 L0,199.568248 L0,37 L0,37 Z M40.19215,71.8931849 L40.19215,164.675063 L71.2860769,164.675063 C97.5809412,164.675063 115.477446,148.178285 115.477446,118.484085 C115.477446,88.3899629 97.5809412,71.8931849 71.2860769,71.8931849 L40.19215,71.8931849 L40.19215,71.8931849 Z M188.36321,117.584261 C188.36321,111.08553 187.163445,106.086507 180.664714,106.086507 C175.66569,106.086507 169.666862,108.486038 168.467096,109.185901 L167.267331,77.5920719 C168.267135,76.3923062 182.064441,72.2931068 196.961531,72.2931068 C211.758641,72.2931068 221.856669,77.7920328 226.155829,90.6895138 C232.154657,79.4917008 240.752978,72.2931068 256.549893,72.2931068 C268.247608,72.2931068 277.845733,76.5922671 278.745558,78.2919352 L273.746534,114.884788 C272.546768,113.18512 261.748877,109.385862 249.851201,109.385862 C235.054091,109.385862 229.755126,121.383519 228.55536,134.281 L228.55536,199.568248 L188.36321,199.568248 L188.36321,117.584261 L188.36321,117.584261 Z M350.731498,164.975005 C350.031634,165.674868 344.032806,168.27436 339.033782,168.27436 C332.535052,168.27436 331.335286,162.975395 331.335286,156.776606 L331.335286,74.5926577 L291.143136,74.5926577 L291.143136,166.674673 C291.143136,191.969732 302.64089,202.06776 322.437024,202.06776 C337.534075,202.06776 351.331381,197.7686 352.331185,196.768795 L350.731498,164.975005 Z M378.526069,244.559461 L378.526069,117.584261 C378.526069,110.885569 377.326303,106.086507 370.827573,106.086507 C365.828549,106.086507 359.829721,108.286077 358.629955,109.385862 L357.430189,77.3921109 C358.429994,76.6922476 372.027338,72.0931459 387.12439,72.0931459 C401.221636,72.0931459 411.319664,76.8922086 415.818785,89.0898262 C423.717243,79.2917399 435.91486,72.3930873 454.111306,72.3930873 C488.304628,72.3930873 512,99.3878149 512,137.380394 C512,174.873072 488.304628,201.96778 454.111306,201.96778 C439.014255,201.96778 426.816637,196.668815 418.718219,189.070299 L418.718219,244.559461 L378.526069,244.559461 L378.526069,244.559461 Z M418.618239,116.384495 L418.618239,158.276313 C424.617067,163.575278 433.71529,167.074595 442.513572,167.074595 C459.710213,167.074595 471.008006,155.57684 471.008006,137.380394 C471.008006,118.983988 460.010154,107.286272 442.513572,107.286272 C433.215388,107.286272 423.717243,111.385472 418.618239,116.384495 L418.618239,116.384495 Z" fill="#414042"></path>
		<g transform="translate(289.000000, 0.000000)">
			<path d="M22.4,56.1 C35.4,56.1 44.1,51.4 44.1,38.2 C44.1,33.3 42,26.9 37.3,20.4 C32.4,13.5 29.3,12.4 22.4,3.55271368e-15 C15.5,12.4 12.4,13.5 7.5,20.4 C2.8,26.9 0.7,33.3 0.7,38.2 C0.7,51.4 9.4,56.1 22.4,56.1 L22.4,56.1 Z M8.1,20.7 C12.8,14.1 15.8,13.1 22.4,1.2 C29,13.1 32,14.1 36.7,20.7 C41.2,26.9 43.2,33 43.2,37.7 C43.2,50.3 34.8,54.9 22.4,54.9 C10,54.9 1.6,50.4 1.6,37.7 C1.6,33 3.7,26.9 8.1,20.7 L8.1,20.7 Z" fill="url(#linearGradient-1)"></path>
			<path d="M22.4,55.4163462 C35.0384615,55.4163462 43.6,50.8298077 43.6,37.8855769 C43.6,33.0951923 41.5615385,26.8778846 36.975,20.5586538 C32.1846154,13.8317308 29.1269231,12.8125 22.4,0.683653846 C15.6730769,12.8125 12.6153846,13.8317308 7.825,20.5586538 C3.23846154,26.8778846 1.2,33.0951923 1.2,37.8855769 C1.2,50.8298077 9.76153846,55.4163462 22.4,55.4163462 L22.4,55.4163462 Z" fill="url(#linearGradient-2)"></path>
		</g>
	</g>
</svg>
